X:100
T: Outdoor Relief
S: "The Roche Collection of Traditional Irish Music" [I/63/161]
L: 1/8
M: 4/4
R: reel
K: G
gf | edBA BAGA | Bdef g2 fg | eB (3dBA GABd | e2 dB Adgf |
edBA BAGA | Bdef g2 fg | eBBA G2 AB | d2 ed BA A2 ||
eaaa bgag | eaaf g2 fg | eaaa bgaf | gedB A2 Bd |
eaaa bgag | eaaf g2 ga | bgfa gfed | Bdef g2 fg |]
